!!!OTL: 40. Skotshne
!!!Genre:	Skotshne
!!!Mode:	Minor
!!!Listening/dance:	listening
!!!:	*B-:
!!!One_Mode:	no
**kern
*thru
*I"P1
*clefG2
*k[b-e-]
*B-:
!LO:TX:a:i:t=Bb-major
16fJk
=18!|:
4.ff
16eenLL
16ggJJ
=19
(4.ff
8bb-)
=20
(16bb-LL
16aa
16gg
16ffJJ)
(16ggLL
16ff
16ee-
16ddJJ)
=21
16ee-LL
16dd
16cc
16b-JJ
16ccLL
16b-
16a
16gJJ
=22
16fLL
16g
16a
16b-JJ
16ccLL
16dd
16ee-
16ddJJ
=23
4.cc
8dd
=24
(16ddLL
16ee-)
(16cc
16ddJJ)
(16b-LL
16cc)
(16a
16b-JJ)
=25
(16gLL
16a)
16f
16gJJ
16fLL
16e-
16d
16cJJ
=26
(16B-LL
16A)
(16A
16cJJ)
(16cLL
16B-)
16A
16cJJ
*>C1
=27
4.B-
8f
*>C
=18!|:
4.ff
16eenLL
16ggJJ
=19
(4.ff
8bb-)
=20
(16bb-LL
16aa
16gg
16ffJJ)
(16ggLL
16ff
16ee-
16ddJJ)
=21
16ee-LL
16dd
16cc
16b-JJ
16ccLL
16b-
16a
16gJJ
=22
16fLL
16g
16a
16b-JJ
16ccLL
16dd
16ee-
16ddJJ
=23
4.cc
8dd
=24
(16ddLL
16ee-)
(16cc
16ddJJ)
(16b-LL
16cc)
(16a
16b-JJ)
=25
(16gLL
16a)
16f
16gJJ
16fLL
16e-
16d
16cJJ
=26
(16B-LL
16A)
(16A
16cJJ)
(16cLL
16B-)
16A
16cJJ
*>C2
=28:|!
4.B-
*>D
!!!End-Modulation
*-
